src/icons/file-python.svg

<svg width="16" height="16" viewBox="0 0 16 16" fill="none" xmlns="http://www.w3.org/2000/svg">
<path fill-rule="evenodd" clip-rule="evenodd" d="M7.5 7H9.4C9.96005 7 10.2401 7 10.454 6.89101C10.6422 6.79513 10.7951 6.64215 10.891 6.45399C11 6.24008 11 5.96005 11 5.4V4.7C11 3.58323 11 3.02485 10.8532 2.57295C10.5564 1.65964 9.84036 0.943584 8.92705 0.64683C8.47515 0.5 7.91677 0.5 6.8 0.5C6.05549 0.5 5.68323 0.5 5.38197 0.597887C4.77309 0.795723 4.29572 1.27309 4.09789 1.88197C4 2.18323 4 2.55549 4 3.3V3.5H7.5V4.5H4.71429C2.66294 4.5 1 6.16294 1 8.21429V8.5C1 9.88071 2.11929 11 3.5 11C3.5 9.59987 3.5 8.8998 3.77248 8.36502C4.01217 7.89462 4.39462 7.51217 4.86502 7.27248C5.3998 7 6.09987 7 7.5 7ZM6.5 2.25C6.5 1.83579 6.16421 1.5 5.75 1.5C5.33579 1.5 5 1.83579 5 2.25C5 2.66421 5.33579 3 5.75 3C6.16421 3 6.5 2.66421 6.5 2.25Z" fill="#7380F9"/>
<path fill-rule="evenodd" clip-rule="evenodd" d="M8.5 8.5H6.6C6.03995 8.5 5.75992 8.5 5.54601 8.60899C5.35785 8.70487 5.20487 8.85785 5.10899 9.04601C5 9.25992 5 9.53995 5 10.1V10.8C5 11.9168 5 12.4752 5.14683 12.9271C5.44358 13.8404 6.15964 14.5564 7.07295 14.8532C7.52485 15 8.08323 15 9.2 15C9.94451 15 10.3168 15 10.618 14.9021C11.2269 14.7043 11.7043 14.2269 11.9021 13.618C12 13.3168 12 12.9445 12 12.2V12H8.5V11H11.2857C13.3371 11 15 9.33706 15 7.28571V7C15 5.61929 13.8807 4.5 12.5 4.5C12.5 5.90013 12.5 6.6002 12.2275 7.13498C11.9878 7.60538 11.6054 7.98783 11.135 8.22752C10.6002 8.5 9.90013 8.5 8.5 8.5ZM9.5 13.25C9.5 13.6642 9.83579 14 10.25 14C10.6642 14 11 13.6642 11 13.25C11 12.8358 10.6642 12.5 10.25 12.5C9.83579 12.5 9.5 12.8358 9.5 13.25Z" fill="#F5AA52"/>
</svg>

<svg xmlns="http://www.w3.org/2000/svg" width="16" height="16" fill="none"><path fill="#7380F9" fill-rule="evenodd" d="M7.5 7h1.9c.56 0 .84 0 1.054-.109a1 1 0 0 0 .437-.437C11 6.24 11 5.96 11 5.4v-.7c0-1.117 0-1.675-.147-2.127A3 3 0 0 0 8.927.647C8.475.5 7.917.5 6.8.5c-.745 0-1.117 0-1.418.098a2 2 0 0 0-1.284 1.284C4 2.183 4 2.555 4 3.3v.2h3.5v1H4.714A3.714 3.714 0 0 0 1 8.214V8.5A2.5 2.5 0 0 0 3.5 11c0-1.4 0-2.1.272-2.635a2.5 2.5 0 0 1 1.093-1.093C5.4 7 6.1 7 7.5 7m-1-4.75a.75.75 0 1 0-1.5 0 .75.75 0 0 0 1.5 0" clip-rule="evenodd"/><path fill="#F5AA52" fill-rule="evenodd" d="M8.5 8.5H6.6c-.56 0-.84 0-1.054.109a1 1 0 0 0-.437.437C5 9.26 5 9.54 5 10.1v.7c0 1.117 0 1.675.147 2.127a3 3 0 0 0 1.926 1.926C7.525 15 8.083 15 9.2 15c.745 0 1.117 0 1.418-.098a2 2 0 0 0 1.284-1.284C12 13.317 12 12.944 12 12.2V12H8.5v-1h2.786A3.714 3.714 0 0 0 15 7.286V7a2.5 2.5 0 0 0-2.5-2.5c0 1.4 0 2.1-.273 2.635a2.5 2.5 0 0 1-1.092 1.093C10.6 8.5 9.9 8.5 8.5 8.5m1 4.75a.75.75 0 1 0 1.5 0 .75.75 0 0 0-1.5 0" clip-rule="evenodd"/></svg>
